X:1
T: Ladylea Hill
C:
R:Strathspey
Q: 128
K:A
M:4/4
L:1/16
|:e4|c3A ce3 a3g f3e|f3A df3 e8|f3e dc3 d3c BA3|B3A GF3 E4 e3d|
c3A ce3 a3g f3e|f3A df3 e8|f3d A3F E3a g3f|((3e2f2e2) ((3d2c2B2) A4:|
|:c4|ec3 c3e fd3 d3f|ge3 f3g a4 a3=g|fa3 d3f ea3 c3e|((3d2c2B2) ((3c2B2A2) B4 d4|
ec3 c3e fd3 d3f|ge3 f3g a4 a3=g|fa3 d3f ea3 c3e|dcBA GB3 A4:|
